!!!OTL: ES ZOGEN DREI BURSCHE WOHL UEBER DEN RHEIN
!!!ARE: Europa, Mitteleuropa, Deutschland, Thueringen; Rheinland
!!!SCT: B0157
!!!YEM: Copyright 1995, estate of Helmut Schaffrath.
**kern
*ICvox
*Ivox
*M3/4
*k[]
*C:
{4C
=1
4C
4E
4G
=2
4.c
8B
4A
=3
4.A
8G
4G
=4
2G}
{4E
=5
4.E
8D
4E
=6
4.G
8D
4D
=7
4.F
8E
4E
=8
2E}
{4C
=9
4C
4E
4G
=10
4.e
8d
4c
=11
4.d
8c
4B
=12
2c}
==
!!!AGN: Ballade, Romanze
!!!ONB: ESAC (Essen Associative Code) Database: BOEHME
!!!AMT: simple triple
!!!AIN: vox
!!!EED: Helmut Schaffrath
!!!EEV: 1.0
*-
